X:1
T:O tu che mi dai pene
T:Luca Marenzio
T:Source : Il secondo Libro delle canzonette alla Napolitana a tre voci---Venetia---G.Vincenti---1587. Editor : André Vierendeels ( 05/05/17).
T:Notes : Original clefs : G2, C2, F3 Editorial accidentals above the staff "Seconda impressione" Music collected by Attilio Gualtieri 
T:O tu che mi dai pene
T:©
T:©
C:Luca Marenzio
Z:©
%%score [ 1 2 3 ]
L:1/8
Q:1/4=120
M:4/4
K:F
V:1 treble nm="Soprano 1" snm="S 1"
V:2 treble nm="Soprano 2" snm="S 2"
V:3 bass nm="Bass" snm="B"
V:1
"^1)" B8 | A3 G A2 B2 | A4 A4 | z4 f4 | _e3 e e2 d2 | c8 |[M:2/4] B4 :: z2 d2 |[M:4/4] f3 e f2 g2 | %9
w: O|tu che mi dai|pe- ne,|dol-|cis- si- mo mio|be-|ne,|per-|che mi dai mar-|
w: O|tu che fai gl'in-|gan- ni,|e-|del mio cor gli'af-|fan-|ni,|per-|che non por- gi'a-|
 e4 d2 f2 | e3 d e2 f2 | d4 c4 | z4 g4- | g4 d4- | d2 e2 f4- | f2 d2 c4 | B4 d2 d2 | c2 A2 d2 cB | %18
w: ti- re, e|non mi fai mo-|ri- re,|deh|_ fa|_ cor mio|_ ch'io mo-|ra, u- na|vol- ta'e non mil- l'e|
w: i- ta, all'|af- flit- ta mia|vi- ta,|fa-|* cen-|* do sol|_ ch'io mo-|ra, u- na|vol- ta'e non mil- l'e|
 A2 G2 A4 | G8 :| %20
w: mil- le'a l'ho-|ra.|
w: mil- le'a l'ho-|ra.|
V:2
"^2)""^1)" G8 | ^F3 E F2 G2 | ^F4 F4 | z4 B4 | G3 G G2 B2- | B2 AG A4 |[M:2/4] B4 :: z2 B2 | %8
w: O|tu che mi dai|pe- ne,|dol-|cis- si- mo mio|_ _ _ be-|ne,|per|
w: O|tu che'i miei de-|si- ri,|sol|pa- sci di so-|* * * spi-|ri,|per-|
[M:4/4] d3 ^c d2 =B2 |"^#" c4 d2 d2 | c3 =B c2 A2 | =B4 c4 | z4 G4- | G4 B4- | B2 G2 F4 | %15
w: che mi dai mar-|ti- re, e|non mi fai mo-|ri- re,|deh|_ fa|_ cor mio|
w: che non o- di'e|sen- ti, i|miei gra- vi tor-|men- ti,|et|_ al-|* men fa|
 A2 B4 A2 | B4 B2 B2 | A2 F2 B2 AG | ^F2 G4 F2 | G8 :| %20
w: ch'io mo- *|ra, u- na|vol- ta'e non mil- l'e|mil- le'a l'ho-|ra.|
w: ch'io mo- *|ra, u- na|vol- ta'e non mil- l'e|mil- le'a l'ho-|ra.|
V:3
"^3)""^1)""^4)" G,8 | D,3 C, D,2 _E,2 | D,4 D,4 | B,,8 | _E,3 E, E,2 E,2 | F,8 |[M:2/4] B,,4 :: %7
w: O|tu che mi dai|pe- ne,|dol-|cis- si- mo mio|be-|ne,|
w: O|to che lo mio|co- re,|nu-|tri- ci di do-|lo-|re,|
 B,4 |[M:4/4] B,3 A, B,2 G,2 | A,4 D,2 D,2 | A,3 G, A,2 F,2 | G,4 C,4 | C8 | G,6 A,2 | B,6 B,,2 | %15
w: per|che mi dai mar-|ti- re, e|non mi fai mo-|ri- re,|deh|fa cor|mio ch'io|
w: per-|che non li dai|mor- te,, per|fi- nir sua ria|sor- te,|e|far al|fin ch'io|
 F,8 | B,,4 B,2 B,2 | F,2 F,2 G,2 F,_E, | D,2 C,2 D,4 | G,8 :| %20
w: mo-|ra, u- na|vol- ta'e non mil- l'e|mil- le'a l'ho-|ra.|
w: mo-|ra, u- na|vol- ta'e non mil- l'e|mil- le'a l'ho-|ra.|

